X:6669
T:The Crooked Road
O:england
M:C|
L:1/8
R:Reel
K:G
G2AG FGAF|~G2FG AdcA|GAGF DFAd|1fdcA dcAF:|2fdcA d2Bc||\
dg~g2 fgaf|dgbg agfe|dg~g2 fgag|fdBc d2Bc|dg~g2 fgaf|dgbg a2ga|\
bgaf gbag|fdcA dcAF||


